X:105
T: Cow's Tit (The)
C: Luke O'Malley
Z: B.Black
R: jig
M: 6/8
L: 1/8
K: Bb
B,DF Bdf | bc'b agf | geg fdB | efe c2 B |
B,DF Bdf | CEG ceg | agf edc | AFA B3 :|
GBd gdB | ded cBA | BGB A_GA | GAG F2 D |
B,DF Bdf | CEG ceg | agf edc | AFA B3 :|
P: version in G
K: G
G,B,D GBd | gag fed | ece dBG | cdc A2 G |
G,B,D GBd | A,CE Ace | fed cBA | FDF G3 :|
EGB eBG | BcB AGF | GEG F^DF | EFE =D2 B, |
G,B,D GBd | A,CE Ace | fed cBA | FDF G3 :|
